flaticon/files-and-folders/files-15.svg

<svg xmlns="http://www.w3.org/2000/svg" width="32" height="32" viewBox="0 0 24 24">
    <path d="M 20.792969 5.117188 C 20.769531 5 20.707031 4.90625 20.609375 4.851562 L 15.949219 0.191406 C 15.894531 0.09375 15.800781 0.0273438 15.683594 0.0078125 C 15.648438 0 15.613281 0 15.578125 0 L 4.398438 0 C 3.71875 0 3.199219 0.523438 3.199219 1.203125 L 3.199219 22.800781 C 3.199219 23.480469 3.71875 24 4.398438 24 L 19.597656 24 C 20.277344 24 20.796875 23.480469 20.796875 22.800781 L 20.796875 5.222656 C 20.800781 5.1875 20.800781 5.152344 20.792969 5.117188 Z M 19.4375 4.800781 L 16.398438 4.800781 C 16.160156 4.800781 16 4.640625 16 4.402344 L 16 1.363281 Z M 20 22.800781 C 20 23.039062 19.839844 23.199219 19.597656 23.199219 L 4.398438 23.199219 C 4.160156 23.199219 4 23.039062 4 22.800781 L 4 1.203125 C 4 1 4.160156 0.800781 4.398438 0.800781 L 15.199219 0.800781 L 15.199219 4.402344 C 15.199219 5.082031 15.71875 5.601562 16.398438 5.601562 L 20 5.601562 Z M 20 22.800781"/>
    <path d="M14.398438 9.601562C14.398438 8.921875 13.878906 8.402344 13.199219 8.402344L6.800781 8.402344C6.121094 8.402344 5.601562 8.921875 5.601562 9.601562L5.601562 14.402344C5.601562 15.082031 6.121094 15.601562 6.800781 15.601562L13.199219 15.601562C13.878906 15.601562 14.398438 15.082031 14.398438 14.402344L14.398438 14.15625 16.839844 14.878906C16.957031 14.921875 17.078125 14.921875 17.199219 14.921875 17.4375 14.921875 17.71875 14.839844 17.917969 14.679688 18.238281 14.441406 18.398438 14.121094 18.398438 13.722656L18.398438 10.28125C18.398438 9.882812 18.238281 9.5625 17.917969 9.320312 17.597656 9.082031 17.199219 9 16.839844 9.121094L14.398438 9.847656zM13.597656 14.402344C13.597656 14.640625 13.4375 14.800781 13.199219 14.800781L6.800781 14.800781C6.558594 14.800781 6.398438 14.640625 6.398438 14.402344L6.398438 9.601562C6.398438 9.359375 6.558594 9.199219 6.800781 9.199219L13.199219 9.199219C13.4375 9.199219 13.597656 9.359375 13.597656 9.601562zM17.078125 9.882812C17.199219 9.882812 17.320312 9.882812 17.4375 9.960938 17.558594 10.039062 17.597656 10.160156 17.597656 10.28125L17.597656 13.722656C17.597656 13.839844 17.558594 13.960938 17.4375 14.039062 17.320312 14.121094 17.199219 14.160156 17.078125 14.121094L14.398438 13.320312 14.398438 10.679688zM18 19.199219L14 19.199219C13.757812 19.199219 13.597656 19.359375 13.597656 19.601562 13.597656 19.839844 13.757812 20 14 20L18 20C18.238281 20 18.398438 19.839844 18.398438 19.601562 18.398438 19.359375 18.238281 19.199219 18 19.199219zM16 20.800781L14 20.800781C13.757812 20.800781 13.597656 20.960938 13.597656 21.199219 13.597656 21.441406 13.757812 21.601562 14 21.601562L16 21.601562C16.238281 21.601562 16.398438 21.441406 16.398438 21.199219 16.398438 20.960938 16.238281 20.800781 16 20.800781zM18 20.800781L17.597656 20.800781C17.359375 20.800781 17.199219 20.960938 17.199219 21.199219 17.199219 21.441406 17.359375 21.601562 17.597656 21.601562L18 21.601562C18.238281 21.601562 18.398438 21.441406 18.398438 21.199219 18.398438 20.960938 18.238281 20.800781 18 20.800781zM18 20.800781"/>
</svg>

<svg xmlns="http://www.w3.org/2000/svg" width="32" height="32" viewBox="0 0 24 24">
    <path d="M20.793 5.117a.378.378 0 0 0-.184-.265L15.95.192a.367.367 0 0 0-.265-.184C15.648 0 15.614 0 15.578 0H4.398C3.718 0 3.2.523 3.2 1.203v21.598c0 .68.52 1.199 1.2 1.199h15.199c.68 0 1.199-.52 1.199-1.2V5.224a.32.32 0 0 0-.004-.106zm-1.355-.316h-3.04c-.238 0-.398-.16-.398-.399V1.363zm.562 18c0 .238-.16.398-.402.398h-15.2c-.238 0-.398-.16-.398-.398V1.203a.4.4 0 0 1 .398-.402H15.2v3.601c0 .68.52 1.2 1.2 1.2H20zm0 0"/>
    <path d="M14.398 9.602c0-.68-.52-1.2-1.199-1.2H6.801c-.68 0-1.2.52-1.2 1.2v4.8c0 .68.52 1.2 1.2 1.2h6.398c.68 0 1.2-.52 1.2-1.2v-.246l2.44.723c.118.043.24.043.36.043.238 0 .52-.082.719-.242.32-.239.48-.559.48-.957V10.28c0-.398-.16-.719-.48-.96-.32-.239-.719-.321-1.078-.2l-2.442.727zm-.8 4.8c0 .239-.16.399-.399.399H6.801c-.242 0-.403-.16-.403-.399v-4.8c0-.243.16-.403.403-.403h6.398c.239 0 .399.16.399.403zm3.48-4.52c.121 0 .242 0 .36.079.12.078.16.2.16.32v3.442c0 .117-.04.238-.16.316-.118.082-.239.121-.36.082l-2.68-.8V10.68zm0 0M18 19.2h-4c-.242 0-.402.16-.402.402 0 .238.16.398.402.398h4c.238 0 .398-.16.398-.398 0-.243-.16-.403-.398-.403zm0 0M16 20.8h-2c-.242 0-.402.16-.402.4 0 .241.16.402.402.402h2c.238 0 .398-.16.398-.403 0-.238-.16-.398-.398-.398zm0 0M18 20.8h-.402c-.239 0-.399.16-.399.4 0 .241.16.402.399.402H18c.238 0 .398-.16.398-.403 0-.238-.16-.398-.398-.398zm0 0"/>
</svg>
